projects/vfh1/img/icons/job.svg

<svg width="94" height="52" viewBox="0 0 94 52" fill="none" xmlns="http://www.w3.org/2000/svg">
<path d="M67.9904 32.573L66.6193 32.0546C66.9438 31.5779 67.2065 31.0622 67.4008 30.5198V30.4516C67.6098 29.8859 67.7046 29.2849 67.6799 28.6827C67.6551 28.0806 67.5113 27.4892 67.2565 26.9424C67.0018 26.3956 66.6413 25.9042 66.1954 25.4962C65.7496 25.0883 65.2274 24.7718 64.6585 24.5648L52.9076 20.2742C52.7276 20.2089 52.5363 20.1794 52.3448 20.1875C52.1533 20.1957 51.9653 20.2413 51.7915 20.3217C51.6177 20.4022 51.4615 20.5159 51.3319 20.6564C51.2022 20.7969 51.1017 20.9614 51.036 21.1405C50.9702 21.3197 50.9406 21.51 50.9488 21.7005C50.957 21.8911 51.0028 22.0781 51.0837 22.2511C51.1645 22.424 51.2788 22.5794 51.42 22.7083C51.5612 22.8373 51.7266 22.9374 51.9067 23.0028L63.6301 27.2865C63.8411 27.3638 64.0345 27.482 64.1993 27.6342C64.3641 27.7865 64.4968 27.9697 64.5899 28.1733C64.7806 28.5805 64.8028 29.046 64.6516 29.4693V29.5375C64.1786 30.8131 63.6918 30.9495 63.3833 30.9018L53.3738 27.2388L51.9409 26.7067L46.8196 24.8309C46.6396 24.7655 46.4483 24.736 46.2568 24.7441C46.0653 24.7523 45.8773 24.7979 45.7035 24.8783C45.5297 24.9588 45.3735 25.0725 45.2439 25.213C45.1143 25.3535 45.0137 25.518 44.948 25.6972C44.8823 25.8763 44.8527 26.0666 44.8609 26.2571C44.869 26.4477 44.9149 26.6348 44.9957 26.8077C45.0766 26.9806 45.1909 27.136 45.3321 27.265C45.4733 27.3939 45.6386 27.494 45.8187 27.5594L52.2974 29.9263L62.1835 33.5689C62.2521 33.5689 62.3206 33.5689 62.3892 33.6235L67.0237 35.322C67.2362 35.3982 67.4311 35.5159 67.5971 35.6682C67.7631 35.8205 67.8969 36.0043 67.9904 36.2087C68.084 36.4241 68.1323 36.6562 68.1323 36.8909C68.1323 37.1255 68.084 37.3576 67.9904 37.573C67.874 37.7649 67.7178 37.9299 67.5321 38.0569C67.3465 38.184 67.1358 38.2701 66.914 38.3097C66.2905 38.4981 65.6248 38.4981 65.0013 38.3097L44.7766 30.8609C44.413 30.7288 44.0115 30.7459 43.6605 30.9083C43.3095 31.0708 43.0377 31.3653 42.905 31.7272C42.7722 32.089 42.7894 32.4885 42.9527 32.8377C43.116 33.1869 43.412 33.4573 43.7757 33.5894L48.6159 35.3561L61.4294 40.0423C61.5323 40.0653 61.6274 40.1145 61.7055 40.1851C61.7836 40.2556 61.842 40.3451 61.875 40.4448C61.8908 40.6227 61.8643 40.8019 61.7976 40.9678C61.7309 41.1337 61.6259 41.2817 61.4911 41.3997C60.5793 42.1774 57.4393 42.4093 56.1778 41.9454L52.558 40.5812C52.3614 40.4573 52.1523 40.3544 51.9341 40.2742L42.3359 36.7681C41.9723 36.636 41.5708 36.6531 41.2198 36.8156C40.8688 36.978 40.597 37.2726 40.4643 37.6344C40.3316 37.9962 40.3487 38.3957 40.512 38.7449C40.6753 39.0941 40.9713 39.3645 41.335 39.4966L44.1733 40.5334L50.9674 43.0982C50.9514 43.403 50.8331 43.6936 50.6315 43.9236C49.9238 44.2899 49.1663 44.5519 48.3828 44.7012C47.982 43.7016 47.2956 42.8407 46.4083 42.2251L46.278 42.1228L46.1272 42.0136C45.4404 41.5779 44.645 41.3417 43.8305 41.3315C43.2785 41.3334 42.7327 41.4471 42.2263 41.6658C41.8443 40.6425 41.1519 39.7628 40.2449 39.1487L40.1215 39.0464C40.0718 39.0062 40.019 38.9697 39.9638 38.9373C39.4298 38.5861 38.8208 38.3638 38.1852 38.288C37.5497 38.2122 36.9051 38.285 36.3028 38.5007C35.8896 37.5761 35.2306 36.7813 34.3969 36.2019L34.2666 36.0996L34.1158 35.9905C33.431 35.556 32.6381 35.3198 31.826 35.3083C31.472 35.3107 31.1197 35.3566 30.777 35.4448C30.6879 33.8759 29.7144 32.8936 28.638 32.0341L28.5078 31.9318L28.3569 31.8227C27.6695 31.3883 26.8745 31.1521 26.0602 31.1405C25.3828 31.1684 24.7187 31.3369 24.1107 31.6353C23.5026 31.9337 22.964 32.3553 22.5295 32.8731C21.1154 31.9697 19.6269 31.187 18.0801 30.5334C18.1212 30.4175 18.1692 30.3015 18.2103 30.1787L18.8205 28.5348C19.5678 26.4884 20.5207 23.9168 21.4188 21.4884L23.1945 16.7135C23.2201 16.6325 23.2498 16.5528 23.2836 16.4748C23.2836 16.4748 23.2836 16.4202 23.2836 16.3929C23.455 15.9223 23.6127 15.4993 23.7498 15.1446L23.8115 14.9809L23.9144 14.7081C25.9711 14.7626 30.7702 14.8377 35.1511 14.6126C35.5347 14.6035 35.899 14.4432 36.1639 14.1669C36.4288 13.8906 36.5724 13.5209 36.5633 13.1392C36.5543 12.7575 36.3931 12.395 36.1154 12.1314C35.8377 11.8679 35.4661 11.725 35.0825 11.734H35.0071C31.2844 11.925 27.2943 11.8909 24.9702 11.85L25.3609 10.7858C25.7135 9.8369 25.6732 8.78757 25.2491 7.8681C24.8249 6.94863 24.0515 6.23412 23.0985 5.88135L13.1987 2.23878C12.7738 2.07883 12.323 1.99791 11.8687 2.00004C11.0909 2.00159 10.3318 2.23688 9.69074 2.67507C9.0497 3.11327 8.55666 3.73392 8.27623 4.4557L0.241205 26.0791C0.0649529 26.5493 -0.0161155 27.0495 0.00264912 27.551C0.0214137 28.0524 0.139642 28.5452 0.350545 29.001C0.561448 29.4568 0.860855 29.8667 1.23154 30.2069C1.60223 30.5472 2.03688 30.8111 2.51048 30.9836L12.4034 34.6262C12.8292 34.783 13.2794 34.8638 13.7335 34.865C14.3565 34.8609 14.9692 34.706 15.5187 34.4136C16.0681 34.1213 16.5378 33.7002 16.8871 33.1869C18.2684 33.7605 19.6005 34.4449 20.8704 35.2333C20.5963 35.8042 20.4826 36.4382 20.5413 37.0682C20.6337 37.6977 20.8585 38.3008 21.2011 38.8379C21.5437 39.3751 21.9964 39.8343 22.5295 40.1855C23.4893 41.1203 24.7542 41.6818 26.0945 41.7681C26.1974 41.7681 26.2933 41.7681 26.3962 41.7681C26.7096 42.8279 27.3802 43.7481 28.2952 44.3738C29.2512 45.3102 30.5146 45.8721 31.8534 45.9563C32.155 45.9531 32.4547 45.9095 32.7446 45.8267C33.3241 46.647 34.0621 47.344 34.9156 47.8769C35.7691 48.4098 36.7208 48.768 37.7151 48.9304C37.9454 48.9303 38.175 48.9075 38.4007 48.8622C38.5309 48.834 38.6591 48.7975 38.7846 48.7531C39.3584 49.6156 40.1065 50.3497 40.9811 50.9087C41.8558 51.4677 42.8378 51.8394 43.8648 52C44.541 51.9866 45.2012 51.7928 45.7765 51.4388C46.3517 51.0849 46.8209 50.5837 47.135 49.9877C47.5814 49.257 47.9447 48.4791 48.2182 47.6685C49.6486 47.4859 51.0282 47.0221 52.2769 46.3042L52.4551 46.1814C53.0843 45.6423 53.5398 44.9305 53.7646 44.1351L55.1358 44.6603C56.0772 44.9591 57.0615 45.102 58.0495 45.0832C60.024 45.0832 62.2452 44.6126 63.4519 43.5075L63.5136 43.4461C64.1331 42.8274 64.547 42.0347 64.6996 41.1746C65.1062 41.2535 65.5195 41.2923 65.9337 41.2906C66.5318 41.2904 67.1271 41.2077 67.7025 41.045C68.3747 40.8863 68.9992 40.5701 69.5239 40.1228C70.0485 39.6755 70.4583 39.11 70.719 38.4734C71.1392 37.3309 71.0864 36.0692 70.5722 34.9654C70.058 33.8616 69.1245 33.0061 67.9767 32.5866L67.9904 32.573ZM13.7266 31.9796C13.6147 31.9792 13.5035 31.9608 13.3975 31.925L3.54572 28.2824C3.31176 28.194 3.12215 28.0176 3.01782 27.7913C2.93076 27.5722 2.93076 27.3283 3.01782 27.1092L11.0528 5.49935C11.1199 5.31958 11.2405 5.16447 11.3985 5.05476C11.5566 4.94505 11.7445 4.88597 11.9372 4.88544C12.0498 4.88598 12.1612 4.90678 12.2663 4.94683L22.0976 8.54847C22.2138 8.59025 22.3205 8.65462 22.4116 8.73782C22.5026 8.82102 22.5761 8.9214 22.6277 9.03311C22.6794 9.14483 22.7082 9.26565 22.7126 9.38855C22.7169 9.51145 22.6966 9.63398 22.6529 9.74901L14.6179 31.3725C14.551 31.5504 14.4311 31.7038 14.2743 31.8123C14.1176 31.9208 13.9313 31.9791 13.7403 31.9796H13.7266ZM24.3943 38.0164L24.3051 37.9482C23.8904 37.6947 23.5795 37.3032 23.4276 36.8431C23.4134 36.7008 23.4446 36.5576 23.5167 36.4338C23.606 36.3324 23.682 36.2201 23.743 36.0996C23.8207 35.9467 23.9077 35.7987 24.0035 35.6562C24.456 34.9741 25.2512 34.0532 26.0191 34.0532C26.2621 34.0693 26.4974 34.1443 26.7047 34.2715L26.7595 34.3124C27.9044 35.2265 28.4255 35.6767 26.8007 38.4052L26.7664 38.4666C26.7 38.5965 26.603 38.7084 26.4835 38.7928C26.3641 38.8771 26.2259 38.9314 26.0808 38.9509C25.4307 38.8431 24.8389 38.5125 24.408 38.0164H24.3943ZM30.16 42.1774L30.0709 42.1023C29.6523 41.853 29.3364 41.4638 29.1796 41.0041C29.1675 40.861 29.2011 40.7178 29.2756 40.5948C29.3649 40.4934 29.4409 40.3811 29.5018 40.2606C29.8172 39.6126 30.825 38.2142 31.7917 38.2142C32.0351 38.2283 32.2709 38.3034 32.4773 38.4325L32.5321 38.4734C33.4028 39.1555 33.9033 39.5716 33.4097 40.9154C33.3349 41.0358 33.2794 41.1669 33.2451 41.3042C33.0398 41.7348 32.811 42.1538 32.5596 42.5594V42.6207C32.49 42.7551 32.3877 42.8699 32.2619 42.9545C32.1361 43.0391 31.9909 43.0909 31.8397 43.1051C31.1928 42.9981 30.6036 42.6701 30.1737 42.1774H30.16ZM37.8659 46.0655C37.4546 46.1473 36.7827 45.8199 36.0423 45.1719L35.96 45.1037C35.5514 44.8527 35.2416 44.4699 35.0825 44.0191L35.1305 43.9441C35.4325 43.4312 35.7027 42.9004 35.9395 42.3547C37.1392 40.7858 37.9962 41.1474 38.3733 41.3725L38.4281 41.4134C39.4428 42.2319 39.7993 42.5048 39.2508 43.9441C39.0401 44.4813 38.7832 44.9993 38.483 45.4925C38.4642 45.5229 38.4482 45.5549 38.435 45.588C38.3099 45.8106 38.1076 45.9803 37.8659 46.0655ZM44.6052 48.6644C44.5389 48.7943 44.4418 48.9062 44.3224 48.9906C44.203 49.0749 44.0648 49.1292 43.9196 49.1487C43.2668 49.0499 42.6685 48.7294 42.2263 48.2415L42.1371 48.1733C41.7211 47.9227 41.4078 47.5336 41.2527 47.075C41.2386 46.9327 41.2697 46.7895 41.3419 46.6658C41.4296 46.5632 41.5055 46.451 41.5681 46.3315C41.8835 45.6494 42.8981 44.2851 43.8579 44.2851C44.1019 44.2958 44.3386 44.3712 44.5435 44.5034L44.5984 44.5443C45.236 45.0491 45.6816 45.4106 45.6679 46.0928C45.6573 46.1903 45.6573 46.2886 45.6679 46.3861C45.4666 47.1826 45.1304 47.9393 44.6738 48.6235L44.6052 48.6644Z" fill="#42474D"/>
<path d="M93.7619 24.259L85.7001 2.51176C85.5254 2.0381 85.2587 1.60348 84.9155 1.23281C84.5722 0.862144 84.159 0.5627 83.6996 0.351632C83.2402 0.140564 82.7436 0.0220198 82.2382 0.00278703C81.7328 -0.0164458 81.2285 0.0640113 80.7543 0.239551L70.8284 3.90528C69.871 4.25894 69.0934 4.97743 68.6665 5.9029C68.2395 6.82837 68.1982 7.88512 68.5516 8.84098L68.9849 10.008C65.862 10.2139 59.5199 10.461 55.145 9.52059C54.8767 9.37643 54.182 8.93709 53.5629 8.5458C49.5664 6.02647 47.4203 4.85947 46.0514 4.8938C45.881 4.89159 45.7109 4.87783 45.5424 4.85261C43.0454 4.53684 41.2845 5.4567 37.4187 11.7173C37.3362 11.8583 37.2759 12.0111 37.2398 12.1703C36.5932 15.081 37.3774 17.1472 38.134 19.1449C38.6111 20.3075 38.9795 21.5117 39.2346 22.7419C39.2789 22.9799 39.382 23.2031 39.5346 23.3913C39.6871 23.5795 39.8843 23.7267 40.1082 23.8197C41.0126 24.109 41.9695 24.1975 42.9117 24.0789C43.854 23.9603 44.7589 23.6376 45.563 23.1332C46.2463 22.6852 46.8063 22.0735 47.192 21.3541C47.5777 20.6347 47.7768 19.8303 47.7711 19.0144V18.6575L49.7934 20.0304C49.951 20.1377 50.1283 20.2129 50.3151 20.2518C50.5018 20.2907 50.6945 20.2926 50.8819 20.2572C51.0694 20.2218 51.248 20.1499 51.4077 20.0456C51.5673 19.9414 51.7048 19.8067 51.8123 19.6494C51.9198 19.4921 51.9952 19.3152 52.0342 19.1288C52.0732 18.9424 52.075 18.7502 52.0395 18.5631C52.0041 18.376 51.9321 18.1977 51.8276 18.0384C51.7231 17.8791 51.5882 17.7419 51.4305 17.6346L46.8493 14.5181C46.6914 14.4102 46.5137 14.3346 46.3265 14.2956C46.1392 14.2565 45.946 14.2548 45.7581 14.2905C45.5701 14.3263 45.3911 14.3987 45.2313 14.5037C45.0715 14.6088 44.9341 14.7443 44.827 14.9025C44.6768 15.1259 44.591 15.3861 44.5789 15.6549C44.5667 15.9236 44.6288 16.1905 44.7582 16.4264C44.8898 17.2617 44.9268 18.1091 44.8683 18.9526C44.8871 19.2972 44.8144 19.6406 44.6573 19.948C44.5003 20.2555 44.2646 20.516 43.974 20.7031C43.3489 21.067 42.6338 21.2478 41.9104 21.2248C41.637 20.1626 41.2946 19.1193 40.8855 18.1014C40.1976 16.2891 39.6886 14.9574 40.0601 13.0147C43.4994 7.52297 44.4899 7.64653 45.2191 7.73577C45.5286 7.78259 45.8416 7.80326 46.1546 7.79755C47.0832 7.87993 50.6876 10.1521 52.0427 11.0034C53.6248 11.9987 54.01 12.2321 54.4228 12.3282C59.6506 13.4952 67.2102 13.0696 70.058 12.85L70.7458 14.6554C70.7802 14.7652 70.8215 14.875 70.8559 14.9643L73.2841 21.5544L75.9393 28.7691C74.4261 29.5011 72.9806 30.3648 71.6195 31.3502C71.3634 31.5223 71.1689 31.7713 71.0644 32.0612C70.9598 32.351 70.9506 32.6666 71.038 32.9621C71.1254 33.2575 71.305 33.5174 71.5506 33.7041C71.7961 33.8908 72.095 33.9944 72.4036 34C72.6992 34.0002 72.9875 33.9091 73.2291 33.7391C74.4335 32.8597 75.7133 32.0878 77.0536 31.4326C77.5336 32.1425 78.239 32.6707 79.0562 32.9322C79.8734 33.1936 80.755 33.1732 81.5591 32.8742L91.4851 29.1947C92.4425 28.8411 93.2201 28.1226 93.647 27.1971C94.0739 26.2716 94.1153 25.2149 93.7619 24.259ZM90.4808 26.4489L80.5549 30.1421C80.3202 30.2248 80.0625 30.213 79.8365 30.1092C79.6104 30.0054 79.4338 29.8177 79.3442 29.586L71.2755 7.83188C71.1889 7.59793 71.1989 7.3392 71.3034 7.11263C71.4079 6.88605 71.5983 6.71018 71.8327 6.62369L81.7655 2.95796C81.8684 2.91711 81.9781 2.89614 82.0888 2.89618C82.2822 2.89671 82.4707 2.95616 82.6293 3.06657C82.7879 3.17698 82.9089 3.33309 82.9761 3.514L91.0379 25.2613C91.1165 25.4927 91.1024 25.7455 90.9985 25.9668C90.8947 26.1881 90.7092 26.3608 90.4808 26.4489Z" fill="#42474D"/>
</svg>

<svg width="94" height="52" fill="none" xmlns="http://www.w3.org/2000/svg"><path d="M67.99 32.573l-1.37-.518c.324-.477.587-.993.78-1.535v-.068a4.564 4.564 0 00-1.205-4.956 4.613 4.613 0 00-1.536-.931l-11.751-4.29a1.469 1.469 0 00-1.576.381 1.45 1.45 0 00.575 2.347l11.723 4.284a1.702 1.702 0 01.96.886c.19.408.213.873.062 1.296v.069c-.473 1.275-.96 1.412-1.269 1.364l-10.01-3.663-1.432-.532-5.121-1.876a1.467 1.467 0 00-1.576.382 1.45 1.45 0 00-.248 1.595 1.454 1.454 0 00.823.751l6.478 2.367 9.887 3.643c.068 0 .137 0 .205.054l4.635 1.699a1.694 1.694 0 01.966.887 1.711 1.711 0 010 1.364 1.577 1.577 0 01-1.076.737 3.307 3.307 0 01-1.913 0l-20.224-7.45a1.466 1.466 0 00-1.117.048 1.445 1.445 0 00-.708 1.93c.164.349.46.62.824.751l4.84 1.767 12.813 4.686a.61.61 0 01.446.403 1.133 1.133 0 01-.384.955c-.912.777-4.052 1.01-5.313.545l-3.62-1.364a3.315 3.315 0 00-.624-.307l-9.598-3.506a1.466 1.466 0 00-1.872.866 1.449 1.449 0 00.871 1.863l2.838 1.036 6.794 2.565a1.36 1.36 0 01-.335.826 8.253 8.253 0 01-2.25.777 5.51 5.51 0 00-1.974-2.476l-.13-.102-.15-.11a4.39 4.39 0 00-2.297-.681 4.082 4.082 0 00-1.605.334 5.264 5.264 0 00-1.981-2.517l-.123-.103a4.126 4.126 0 00-3.819-.546 5.565 5.565 0 00-1.906-2.298l-.13-.102-.151-.11a4.39 4.39 0 00-2.29-.682 4.326 4.326 0 00-1.049.137c-.09-1.57-1.063-2.551-2.139-3.41l-.13-.103-.151-.11a4.417 4.417 0 00-2.297-.681 4.881 4.881 0 00-3.53 1.732 29.834 29.834 0 00-4.45-2.34c.041-.116.09-.232.13-.354l.61-1.644c.748-2.047 1.7-4.618 2.599-7.047l1.776-4.774a2.48 2.48 0 01.089-.24v-.081c.171-.47.329-.894.466-1.248l.061-.164.103-.273c2.057.055 6.856.13 11.237-.095a1.45 1.45 0 001.013-.446 1.435 1.435 0 00-.049-2.036 1.451 1.451 0 00-1.032-.397h-.076c-3.723.191-7.713.157-10.037.116l.39-1.064a3.802 3.802 0 00-.11-2.918 3.832 3.832 0 00-2.151-1.987l-9.9-3.642A3.726 3.726 0 0011.869 2a3.873 3.873 0 00-2.178.675 3.844 3.844 0 00-1.415 1.78L.241 26.08a3.79 3.79 0 00.99 4.128c.371.34.806.604 1.28.777l9.892 3.642a3.87 3.87 0 001.33.239 3.855 3.855 0 003.154-1.678 27.672 27.672 0 013.983 2.046 3.49 3.49 0 00-.329 1.835 4.508 4.508 0 001.988 3.117 5.628 5.628 0 003.566 1.583h.301a4.81 4.81 0 001.9 2.606 5.586 5.586 0 003.557 1.582c.302-.003.602-.047.892-.13a7.56 7.56 0 002.17 2.05 7.599 7.599 0 002.8 1.054c.23 0 .46-.023.686-.068a3.15 3.15 0 00.384-.109 7.468 7.468 0 002.196 2.156A7.51 7.51 0 0043.865 52a3.791 3.791 0 001.911-.561 3.766 3.766 0 001.359-1.451 11.5 11.5 0 001.083-2.32 10.91 10.91 0 004.059-1.364l.178-.123a4.199 4.199 0 001.31-2.046l1.37.525a9.062 9.062 0 002.915.423c1.974 0 4.195-.47 5.402-1.575l.062-.062a4.263 4.263 0 001.186-2.271 6.51 6.51 0 003.003-.13 4.347 4.347 0 001.82-.922 4.32 4.32 0 001.196-1.65 4.57 4.57 0 00-.147-3.508 4.605 4.605 0 00-2.595-2.378l.013-.014zm-54.263-.593a1.04 1.04 0 01-.33-.055l-9.851-3.643a.951.951 0 01-.528-.49.923.923 0 010-.683L11.053 5.5a.943.943 0 011.213-.552l9.832 3.601a.934.934 0 01.615.84.924.924 0 01-.06.361l-8.035 21.623a.936.936 0 01-.878.608h-.013zm10.667 6.036l-.089-.068a2.048 2.048 0 01-.877-1.105.68.68 0 01.089-.41c.089-.1.165-.213.226-.333.078-.153.165-.301.26-.444.453-.682 1.248-1.603 2.016-1.603a1.5 1.5 0 01.686.219l.055.04c1.144.915 1.665 1.365.04 4.093l-.034.062a.902.902 0 01-.685.484 2.828 2.828 0 01-1.673-.935h-.014zm5.766 4.161l-.09-.075a2.048 2.048 0 01-.89-1.098.68.68 0 01.096-.41c.089-.1.165-.213.226-.333.315-.648 1.323-2.047 2.29-2.047.243.014.479.09.685.218l.055.041c.87.683 1.371 1.099.878 2.442-.075.12-.13.252-.165.39-.205.43-.434.849-.685 1.254v.062a.902.902 0 01-.72.484 2.822 2.822 0 01-1.666-.928h-.014zm7.706 3.889c-.411.081-1.083-.246-1.824-.894l-.082-.068a2.09 2.09 0 01-.877-1.085l.047-.075a14.54 14.54 0 00.81-1.59c1.2-1.568 2.056-1.207 2.433-.981l.055.04c1.015.819 1.371 1.092.823 2.531a9.955 9.955 0 01-.768 1.548.614.614 0 00-.048.096 1.055 1.055 0 01-.57.477zm6.74 2.598a.902.902 0 01-.686.485 2.863 2.863 0 01-1.694-.907l-.089-.069c-.416-.25-.73-.64-.884-1.098a.679.679 0 01.089-.41 1.8 1.8 0 00.226-.334c.316-.682 1.33-2.046 2.29-2.046.244.01.48.086.686.218l.054.041c.638.505 1.084.867 1.07 1.549-.01.097-.01.196 0 .293a7.216 7.216 0 01-.994 2.237l-.069.041z" fill="#42474D"/><path d="M93.762 24.259L85.7 2.512a3.837 3.837 0 00-2-2.16A3.851 3.851 0 0080.754.24l-9.926 3.665a3.849 3.849 0 00-2.162 1.998 3.836 3.836 0 00-.114 2.938l.433 1.167c-3.123.206-9.465.453-13.84-.487-.268-.145-.963-.584-1.582-.975-3.997-2.52-6.143-3.687-7.512-3.652a3.77 3.77 0 01-.509-.041c-2.497-.316-4.258.604-8.123 6.864a1.596 1.596 0 00-.18.453c-.646 2.911.138 4.977.895 6.975a20.368 20.368 0 011.1 3.597 1.453 1.453 0 00.874 1.078 6.527 6.527 0 005.455-.687 4.891 4.891 0 002.208-4.119v-.357l2.022 1.373a1.454 1.454 0 002.246-1.467 1.447 1.447 0 00-.608-.928l-4.582-3.117a1.451 1.451 0 00-2.27 1.137c-.012.269.05.536.18.771.13.836.168 1.683.11 2.527a1.953 1.953 0 01-.895 1.75 3.858 3.858 0 01-2.064.522 25.26 25.26 0 00-1.024-3.124c-.688-1.812-1.197-3.144-.826-5.086 3.44-5.492 4.43-5.368 5.16-5.28.309.048.622.068.935.063.928.082 4.533 2.354 5.888 3.205 1.582.996 1.967 1.23 2.38 1.325 5.228 1.167 12.787.742 15.635.522l.688 1.805c.034.11.076.22.11.31l2.428 6.59 2.655 7.214a28.616 28.616 0 00-4.32 2.581 1.449 1.449 0 00.785 2.65c.295 0 .584-.09.825-.26a25.41 25.41 0 013.825-2.307 3.824 3.824 0 004.505 1.441l9.926-3.68a3.849 3.849 0 002.162-1.997 3.837 3.837 0 00.115-2.938zm-3.281 2.19l-9.926 3.693a.958.958 0 01-1.21-.556l-8.07-21.754a.939.939 0 01.558-1.208l9.933-3.666a.875.875 0 01.323-.062.95.95 0 01.887.618l8.062 21.747a.945.945 0 01-.557 1.188z" fill="#42474D"/></svg>
